assets/companies/mayflower.svg

<svg xmlns="http://www.w3.org/2000/svg" preserveAspectRatio="xMinYMin" viewBox="0 0 1024 166"><path fill="#707272" d="M0 126.98v-.79L21.42 17.5q.2-1 .61-.07l35.75 81.83q.29.67.58 0l35.68-81.64q.47-1.06.69.07l21.32 108.62q.1.55-.45.57-6.48.32-12.87.07a.35.35 0 0 1-.33-.29L90.22 57.82q-.18-1.03-.61-.07L58.3 128.8a.25.25 0 0 1-.46 0L26.51 57.71q-.4-.93-.58.07l-12.2 68.9q-.06.28-.35.28zm671.34-52.887a55.51 55.32-.1 0 1-55.413 55.417 55.51 55.32-.1 0 1-55.607-55.223 55.51 55.32-.1 0 1 55.413-55.417 55.51 55.32-.1 0 1 55.607 55.223m-55.445 42.727a42.85 42.36 89.9 0 0 42.285-42.924 42.85 42.36 89.9 0 0-42.435-42.776 42.85 42.36 89.9 0 0-42.285 42.924 42.85 42.36 89.9 0 0 42.435 42.776M760.36 19.27q.28 0 .53.67 21.01 55.15 29.13 76.14.29.74.58 0l29.25-74.7a.43.42-78.4 0 1 .39-.27h13.74a.28.27-79 0 1 .25.38L790.6 130.58a.31.31 0 0 1-.57 0q-16.4-42.51-29.48-76.34-.04-.11-.19-.11-.16 0-.2.11-13.08 33.83-29.48 76.34a.31.31 0 0 1-.57 0L686.48 21.49a.28.27 79 0 1 .25-.38h13.74a.43.42 78.4 0 1 .39.27l29.25 74.7q.29.74.58 0 8.12-20.99 29.13-76.14.25-.67.54-.67M340.44 65.94q.19 0 .3-.19 8.21-14.31 25.44-44.17.28-.47.83-.47h14.23a.25.25 0 0 1 .22.38l-34.13 59.12q-.26.45-.26.97v44.86q0 .5-.5.51-1.63.05-6.12.05-4.5 0-6.13-.05-.5-.01-.5-.51l-.01-44.86q0-.52-.26-.97L299.4 21.5a.25.25 0 0 1 .22-.38h14.23q.55 0 .83.47 17.24 29.85 25.45 44.16.11.19.31.19m83.13 9.48.01 51.23a.35.35 0 0 1-.35.35l-12.65-.01a.35.35 0 0 1-.35-.35V21.46a.35.35 0 0 1 .35-.35h50.76a.35.35 0 0 1 .35.35v11.51a.35.35 0 0 1-.35.35h-37.42a.35.35 0 0 0-.35.35l.01 28.91a.35.35 0 0 0 .35.35h36.1a.35.35 0 0 1 .35.35v11.44a.35.35 0 0 1-.35.35h-36.11a.35.35 0 0 0-.35.35m83.97 39.45 31.48.01a.36.36 0 0 1 .36.36v11.4a.36.36 0 0 1-.36.36h-44.73a.36.36 0 0 1-.36-.36V21.47a.36.36 0 0 1 .36-.36l12.53.01a.36.36 0 0 1 .36.36v93.03a.36.36 0 0 0 .36.36m368.03-81.22.01 28.84a.33.33 0 0 0 .33.33h41.76a.33.33 0 0 1 .33.33v11.46a.33.33 0 0 1-.33.33l-41.76-.01a.33.33 0 0 0-.33.33v39.28a.33.33 0 0 0 .33.33l43.01.01a.33.33 0 0 1 .33.33l.01 11.46a.33.33 0 0 1-.33.33h-56.37a.33.33 0 0 1-.33-.33V21.44a.33.33 0 0 1 .33-.33h56.35a.33.33 0 0 1 .33.33l.02 11.55a.33.33 0 0 1-.33.33H875.9a.33.33 0 0 0-.33.33m148.43 93.1v.14l-15.61.01q-.53 0-.83-.43l-30.55-43.81q-.29-.42-.8-.42h-4.43q-.46 0-.46.46v43.77q0 .53-.53.53H958.5q-.5 0-.5-.5V21.58q0-.46.45-.46 17.92-.11 26.3.31 5.34.26 11.69 2.19c10.89 3.31 17.89 12.82 19.33 24.22q1.59 12.67-6.71 23.21-6.29 8.01-17.84 9.84-.55.09-.22.55zm-52.66-93.23-.06 37.26a.29.29 0 0 0 .29.29l10.47.02a21.48 17.23.1 0 0 21.51-17.19v-3.38a21.48 17.23.1 0 0-21.45-17.27l-10.47-.02a.29.29 0 0 0-.29.29"/><path fill="#e55204" d="M239.55 41.81a1.39 1.38-43.8 0 0-2.01-.04q-4.22 4.26-6.33 6.95-25.94 33.21-48.23 69.28-.94 1.53-3.58 6.79-1.25 2.49-.49 4 1.4 2.74 4.28 3.3 5.41 1.06 12.08.77c11.3-.49 24.33-2.69 35.3-5.25q6.92-1.62 12.33-1.68 12.07-.14 22.13.9c4.74.49 12.37 3.19 13.18 8.67.72 4.91-6.26 11.65-10.98 12.11q-1.01.1-2.74-.58-8.13-3.17-15.56.63-11.1 5.68-21.81 14.22c-.89.71-3.91 1.77-5.19 2.04q-7.91 1.72-16.61 1.82-4.55.06-8.72-1.57c-6.74-2.63-13.15-6.07-19.66-9.72q-5.29-2.95-10.56-7.25c-6.37-5.2-11.97-10.13-17.5-15.86q-2.23-2.33-4.99-7.01-4.03-6.83-5.88-10.99-2.9-6.54.28-13.94.21-.48.68-.69 18.3-8.05 36.63-22.38c27.72-21.68 53.78-48.1 77.37-74.35.78-.87 2.8-1.51 4.11-1.31q4.42.7 6.12 4 .95 1.84 1.7 6.77 1.79 11.74 2.95 21.27 1.56 12.79 3.3 19.66c3.95 15.57 10.18 29.5 17.45 42.65q3.3 5.97.26 10.46c-3.08 4.56-10.26 6.43-15.85 6.06-3.93-.25-7.24-5.4-9.36-8.9q-3.63-5.98-9.37-16.89-2.86-5.43-4.61-11.62-1.89-6.63-6.48-24.96-1.17-4.65-3.64-7.36"/></svg>

<svg viewBox="0.00 0.00 1024.00 166.00" version="1.1" xmlns="http://www.w3.org/2000/svg">
<g fill="#707272">
<path d="M 0.00 126.98
  L 0.00 126.19
  L 21.42 17.50
  Q 21.62 16.50 22.03 17.43
  L 57.78 99.26
  Q 58.07 99.93 58.36 99.26
  L 94.04 17.62
  Q 94.51 16.56 94.73 17.69
  L 116.05 126.31
  Q 116.15 126.86 115.60 126.88
  Q 109.12 127.20 102.73 126.95
  A 0.35 0.35 0.0 0 1 102.40 126.66
  L 90.22 57.82
  Q 90.04 56.79 89.61 57.75
  L 58.30 128.80
  A 0.25 0.25 0.0 0 1 57.84 128.80
  L 26.51 57.71
  Q 26.11 56.78 25.93 57.78
  L 13.73 126.68
  Q 13.67 126.96 13.38 126.96
  L 0.00 126.98
  Z"></path>
<path d="M 671.3399 74.0931
  A 55.51 55.32 -0.1 0 1 615.9266 129.5099
  A 55.51 55.32 -0.1 0 1 560.3201 74.2869
  A 55.51 55.32 -0.1 0 1 615.7334 18.8701
  A 55.51 55.32 -0.1 0 1 671.3399 74.0931
  Z
  M 615.8948 116.8199
  A 42.85 42.36 89.9 0 0 658.1799 73.8961
  A 42.85 42.36 89.9 0 0 615.7452 31.1201
  A 42.85 42.36 89.9 0 0 573.4601 74.0439
  A 42.85 42.36 89.9 0 0 615.8948 116.8199
  Z"></path>
<path d="M 760.36 19.27
  Q 760.64 19.27 760.89 19.94
  Q 781.90 75.09 790.02 96.08
  Q 790.31 96.82 790.60 96.08
  L 819.85 21.38
  A 0.43 0.42 -78.4 0 1 820.24 21.11
  L 833.98 21.11
  A 0.28 0.27 -79.0 0 1 834.23 21.49
  L 790.60 130.58
  A 0.31 0.31 0.0 0 1 790.03 130.58
  Q 773.63 88.07 760.55 54.24
  Q 760.51 54.13 760.36 54.13
  Q 760.20 54.13 760.16 54.24
  Q 747.08 88.07 730.68 130.58
  A 0.31 0.31 0.0 0 1 730.11 130.58
  L 686.48 21.49
  A 0.28 0.27 79.0 0 1 686.73 21.11
  L 700.47 21.11
  A 0.43 0.42 78.4 0 1 700.86 21.38
  L 730.11 96.08
  Q 730.40 96.82 730.69 96.08
  Q 738.81 75.09 759.82 19.94
  Q 760.07 19.27 760.36 19.27
  Z"></path>
<path d="M 340.44 65.94
  Q 340.63 65.94 340.74 65.75
  Q 348.95 51.44 366.18 21.58
  Q 366.46 21.11 367.01 21.11
  L 381.24 21.11
  A 0.25 0.25 0.0 0 1 381.46 21.49
  L 347.33 80.61
  Q 347.07 81.06 347.07 81.58
  L 347.07 126.44
  Q 347.07 126.94 346.57 126.95
  Q 344.94 127.00 340.45 127.00
  Q 335.95 127.00 334.32 126.95
  Q 333.82 126.94 333.82 126.44
  L 333.81 81.58
  Q 333.81 81.06 333.55 80.61
  L 299.40 21.50
  A 0.25 0.25 0.0 0 1 299.62 21.12
  L 313.85 21.12
  Q 314.40 21.12 314.68 21.59
  Q 331.92 51.44 340.13 65.75
  Q 340.24 65.94 340.44 65.94
  Z"></path>
<path d="M 423.57 75.42
  L 423.58 126.65
  A 0.35 0.35 0.0 0 1 423.23 127.00
  L 410.58 126.99
  A 0.35 0.35 0.0 0 1 410.23 126.64
  L 410.23 21.46
  A 0.35 0.35 0.0 0 1 410.58 21.11
  L 461.34 21.11
  A 0.35 0.35 0.0 0 1 461.69 21.46
  L 461.69 32.97
  A 0.35 0.35 0.0 0 1 461.34 33.32
  L 423.92 33.32
  A 0.35 0.35 0.0 0 0 423.57 33.67
  L 423.58 62.58
  A 0.35 0.35 0.0 0 0 423.93 62.93
  L 460.03 62.93
  A 0.35 0.35 0.0 0 1 460.38 63.28
  L 460.38 74.72
  A 0.35 0.35 0.0 0 1 460.03 75.07
  L 423.92 75.07
  A 0.35 0.35 0.0 0 0 423.57 75.42
  Z"></path>
<path d="M 507.54 114.87
  L 539.02 114.88
  A 0.36 0.36 0.0 0 1 539.38 115.24
  L 539.38 126.64
  A 0.36 0.36 0.0 0 1 539.02 127.00
  L 494.29 127.00
  A 0.36 0.36 0.0 0 1 493.93 126.64
  L 493.93 21.47
  A 0.36 0.36 0.0 0 1 494.29 21.11
  L 506.82 21.12
  A 0.36 0.36 0.0 0 1 507.18 21.48
  L 507.18 114.51
  A 0.36 0.36 0.0 0 0 507.54 114.87
  Z"></path>
<path d="M 875.57 33.65
  L 875.58 62.49
  A 0.33 0.33 0.0 0 0 875.91 62.82
  L 917.67 62.82
  A 0.33 0.33 0.0 0 1 918.00 63.15
  L 918.00 74.61
  A 0.33 0.33 0.0 0 1 917.67 74.94
  L 875.91 74.93
  A 0.33 0.33 0.0 0 0 875.58 75.26
  L 875.58 114.54
  A 0.33 0.33 0.0 0 0 875.91 114.87
  L 918.92 114.88
  A 0.33 0.33 0.0 0 1 919.25 115.21
  L 919.26 126.67
  A 0.33 0.33 0.0 0 1 918.93 127.00
  L 862.56 127.00
  A 0.33 0.33 0.0 0 1 862.23 126.67
  L 862.23 21.44
  A 0.33 0.33 0.0 0 1 862.56 21.11
  L 918.91 21.11
  A 0.33 0.33 0.0 0 1 919.24 21.44
  L 919.26 32.99
  A 0.33 0.33 0.0 0 1 918.93 33.32
  L 875.90 33.32
  A 0.33 0.33 0.0 0 0 875.57 33.65
  Z"></path>
<path d="M 1024.00 126.75
  Q 1024.00 126.82 1024.00 126.89
  L 1008.39 126.90
  Q 1007.86 126.90 1007.56 126.47
  L 977.01 82.66
  Q 976.72 82.24 976.21 82.24
  L 971.78 82.24
  Q 971.32 82.24 971.32 82.70
  L 971.32 126.47
  Q 971.32 127.00 970.79 127.00
  L 958.50 127.00
  Q 958.00 127.00 958.00 126.50
  L 958.00 21.58
  Q 958.00 21.12 958.45 21.12
  Q 976.37 21.01 984.75 21.43
  Q 990.09 21.69 996.44 23.62
  C 1007.33 26.93 1014.33 36.44 1015.77 47.84
  Q 1017.36 60.51 1009.06 71.05
  Q 1002.77 79.06 991.22 80.89
  Q 990.67 80.98 991.00 81.44
  L 1024.00 126.75
  Z
  M 971.34 33.52
  L 971.28 70.78
  A 0.29 0.29 0.0 0 0 971.57 71.07
  L 982.04 71.09
  A 21.48 17.23 0.1 0 0 1003.55 53.90
  L 1003.55 50.52
  A 21.48 17.23 0.1 0 0 982.10 33.25
  L 971.63 33.23
  A 0.29 0.29 0.0 0 0 971.34 33.52
  Z"></path>
</g>
<path d="M 239.55 41.81
  A 1.39 1.38 -43.8 0 0 237.54 41.77
  Q 233.32 46.03 231.21 48.72
  Q 205.27 81.93 182.98 118.00
  Q 182.04 119.53 179.40 124.79
  Q 178.15 127.28 178.91 128.79
  Q 180.31 131.53 183.19 132.09
  Q 188.60 133.15 195.27 132.86
  C 206.57 132.37 219.60 130.17 230.57 127.61
  Q 237.49 125.99 242.90 125.93
  Q 254.97 125.79 265.03 126.83
  C 269.77 127.32 277.40 130.02 278.21 135.50
  C 278.93 140.41 271.95 147.15 267.23 147.61
  Q 266.22 147.71 264.49 147.03
  Q 256.36 143.86 248.93 147.66
  Q 237.83 153.34 227.12 161.88
  C 226.23 162.59 223.21 163.65 221.93 163.92
  Q 214.02 165.64 205.32 165.74
  Q 200.77 165.80 196.60 164.17
  C 189.86 161.54 183.45 158.10 176.94 154.45
  Q 171.65 151.50 166.38 147.20
  C 160.01 142.00 154.41 137.07 148.88 131.34
  Q 146.65 129.01 143.89 124.33
  Q 139.86 117.50 138.01 113.34
  Q 135.11 106.80 138.29 99.40
  Q 138.50 98.92 138.97 98.71
  Q 157.27 90.66 175.60 76.33
  C 203.32 54.65 229.38 28.23 252.97 1.98
  C 253.75 1.11 255.77 0.47 257.08 0.67
  Q 261.50 1.37 263.20 4.67
  Q 264.15 6.51 264.90 11.44
  Q 266.69 23.18 267.85 32.71
  Q 269.41 45.50 271.15 52.37
  C 275.10 67.94 281.33 81.87 288.60 95.02
  Q 291.90 100.99 288.86 105.48
  C 285.78 110.04 278.60 111.91 273.01 111.54
  C 269.08 111.29 265.77 106.14 263.65 102.64
  Q 260.02 96.66 254.28 85.75
  Q 251.42 80.32 249.67 74.13
  Q 247.78 67.50 243.19 49.17
  Q 242.02 44.52 239.55 41.81
  Z" fill="#e55204"></path>
</svg>
